icon_installer/data/icons/scalable/actions/show-tea-symbolic.svg

<?xml version="1.0" encoding="UTF-8"?>
<svg height="16px" viewBox="0 0 16 16" width="16px" xmlns="http://www.w3.org/2000/svg">
    <g fill="#222222">
        <path d="m 6 3 v 1.761719 l -2 1.488281 v 3.75 h 5.023438 v -3.75 l -2.023438 -1.511719 v -1.738281 z m 6 0 v 2 h 2 v 1 c 0 0.5625 -0.4375 1 -1 1 h -1 v 2 h 1 c 1.644531 0 3 -1.355469 3 -3 v -3 z m -5.484375 2.625 l 1.507813 1.125 v 2.25 h -3.023438 v -2.25 z m -5.589844 8.375 c -0.515625 0 -0.925781 0.410156 -0.925781 0.925781 v 0.148438 c 0 0.515625 0.410156 0.925781 0.925781 0.925781 h 12.148438 c 0.511719 0 0.925781 -0.410156 0.925781 -0.925781 v -0.148438 c 0 -0.515625 -0.414062 -0.925781 -0.925781 -0.925781 z m 0 0"/>
        <path d="m 1 2 v 7.390625 c 0 1.980469 1.628906 3.609375 3.613281 3.609375 h 4.773438 c 1.984375 0 3.613281 -1.628906 3.613281 -3.609375 v -7.390625 z m 2 2 h 8 v 5.390625 c 0 0.90625 -0.703125 1.609375 -1.613281 1.609375 h -4.773438 c -0.910156 0 -1.613281 -0.703125 -1.613281 -1.609375 z m 0 0"/>
    </g>
</svg>

<svg xmlns="http://www.w3.org/2000/svg" width="16" height="16"><g fill="#222"><path d="M6 3v1.762L4 6.25V10h5.023V6.25L7 4.738V3zm6 0v2h2v1c0 .563-.438 1-1 1h-1v2h1c1.645 0 3-1.355 3-3V3zM6.516 5.625 8.023 6.75V9H5V6.75zM.926 14a.92.92 0 0 0-.926.926v.148c0 .516.41.926.926.926h12.148c.512 0 .926-.41.926-.926v-.148a.923.923 0 0 0-.926-.926zm0 0"/><path d="M1 2v7.39A3.626 3.626 0 0 0 4.613 13h4.774A3.627 3.627 0 0 0 13 9.39V2zm2 2h8v5.39c0 .907-.703 1.61-1.613 1.61H4.613C3.703 11 3 10.297 3 9.39zm0 0"/></g></svg>
